X: 125
U:~=!turn!
M:C
L:1/8
K:G
cB{cB}(AG) {/G}FEDC | B,D{/F}GD CEAE | FDAF {/F}G2 G || d | {/f}g2 Tg2 (ec)ce | ^caca fdd=c | BgBg ecc^g |
a^ga^c {/c}d2 d=c | (B/c/d) gd (ec)ce | (^c/d/e) {/g}agfd d(g/a/) | bdBg ecAc | (B/c/d) (DF) {/F}G2 (GE) !segno!|]


